Numix-GalliumOS/64/status/appointment-missed.svg

<?xml version="1.0" encoding="UTF-8" standalone="no"?>
<svg
   xmlns:dc="http://purl.org/dc/elements/1.1/"
   xmlns:cc="http://creativecommons.org/ns#"
   xmlns:rdf="http://www.w3.org/1999/02/22-rdf-syntax-ns#"
   xmlns:svg="http://www.w3.org/2000/svg"
   xmlns="http://www.w3.org/2000/svg"
   xmlns:sodipodi="http://sodipodi.sourceforge.net/DTD/sodipodi-0.dtd"
   xmlns:inkscape="http://www.inkscape.org/namespaces/inkscape"
   width="64"
   height="64"
   viewBox="0 0 64 64"
   id="svg2"
   version="1.1"
   inkscape:version="0.91 r13725"
   sodipodi:docname="appointment-missed.svg">
  <metadata
     id="metadata14">
    <rdf:RDF>
      <cc:Work
         rdf:about="">
        <dc:format>image/svg+xml</dc:format>
        <dc:type
           rdf:resource="http://purl.org/dc/dcmitype/StillImage" />
        <dc:title />
      </cc:Work>
    </rdf:RDF>
  </metadata>
  <defs
     id="defs12" />
  <sodipodi:namedview
     pagecolor="#ffffff"
     bordercolor="#666666"
     borderopacity="1"
     objecttolerance="10"
     gridtolerance="10"
     guidetolerance="10"
     inkscape:pageopacity="0"
     inkscape:pageshadow="2"
     inkscape:window-width="1366"
     inkscape:window-height="704"
     id="namedview10"
     showgrid="false"
     inkscape:zoom="1"
     inkscape:cx="26.126956"
     inkscape:cy="37"
     inkscape:window-x="0"
     inkscape:window-y="27"
     inkscape:window-maximized="1"
     inkscape:current-layer="svg2">
    <inkscape:grid
       type="xygrid"
       id="grid4187" />
  </sodipodi:namedview>
  <path
     style="opacity:1;fill:#ebebeb;fill-rule:evenodd;fill-opacity:1"
     d="M 62,32 C 62,48.567383 48.567383,62 32,62 15.432617,62 2,48.567383 2,32 2,15.432617 15.432617,2 32,2 48.567383,2 62,15.432617 62,32 Z"
     id="path4"
     inkscape:connector-curvature="0" />
  <path
     style="fill:#aaaaaa;opacity:1;fill-opacity:1"
     d="M 31.949219 11.148438 C 30.1875 11.175781 28.773438 12.636719 28.800781 14.398438 L 28.800781 32 C 28.800781 32.75 29.0625 33.476562 29.550781 34.050781 L 37.550781 43.648438 C 38.261719 44.613281 39.4375 45.085938 40.613281 44.914062 C 41.789062 44.726562 42.761719 43.914062 43.148438 42.789062 C 43.539062 41.664062 43.261719 40.414062 42.449219 39.550781 L 35.199219 30.851562 L 35.199219 14.398438 C 35.210938 13.539062 34.875 12.699219 34.261719 12.085938 C 33.648438 11.476562 32.8125 11.136719 31.949219 11.148438 Z "
     id="path6" />
  <path
     style="fill:#aaa;opacity:1"
     d="M 32 0 C 14.363281 0 0 14.363281 0 32 C 0 49.636719 14.363281 64 32 64 C 49.636719 64 64 49.636719 64 32 C 64 14.363281 49.636719 0 32 0 Z M 32 6.398438 C 46.175781 6.398438 57.601562 17.824219 57.601562 32 C 57.601562 46.175781 46.175781 57.601562 32 57.601562 C 17.824219 57.601562 6.398438 46.175781 6.398438 32 C 6.398438 17.824219 17.824219 6.398438 32 6.398438 Z "
     id="path8" />
  <path
     inkscape:connector-curvature="0"
     id="path6-2"
     d="M 30,49.00183 C 29.998159,57.285522 23.283691,64 15,64 6.7163088,64 0.00183133,57.285522 3.9248645e-7,49.00183 -0.00187461,40.716307 6.7144779,33.999998 15,33.999998 c 8.285522,0 15.001832,6.716309 15,15.001832 z"
     style="fill:#dc322f;fill-rule:evenodd" />
  <path
     inkscape:connector-curvature="0"
     id="path8-1"
     d="m 7.0082925,41.00048 0,2.667889 c -0.05859,0.746071 0.193354,1.50972 0.753884,2.027283 l 3.4178645,3.36318 -3.4178645,3.361228 c -0.499985,0.501938 -0.753884,1.206994 -0.753884,1.914004 l 0,2.665936 2.6659336,0 c 0.7050579,0 1.4120679,-0.251946 1.9120529,-0.753884 l 3.417866,-3.419818 3.417865,3.419818 C 18.923948,56.748054 19.629005,57 20.334063,57 l 2.665935,0 0,-2.665936 c 0,-0.70701 -0.251945,-1.412066 -0.753883,-1.914004 l -3.359274,-3.361228 3.417865,-3.36318 c 0.574201,-0.529281 0.695292,-1.265587 0.695292,-2.027283 l 0,-2.667889 -2.665935,0 c -0.640607,0.01953 -1.14645,0.255852 -1.85346,0.871069 l -3.476458,3.361227 -3.417866,-3.361227 c -0.472643,-0.490221 -1.119107,-0.83982 -1.7968209,-0.871069 -0.02735,0 -0.08788,0 -0.115232,0 z"
     style="fill:#ffffff;fill-opacity:0.9020004;fill-rule:evenodd" />
</svg>

<svg xmlns="http://www.w3.org/2000/svg" viewBox="0 0 64 64">
 <path d="m 62 32 c 0 16.567 -13.433 30 -30 30 -16.567 0 -30 -13.433 -30 -30 0 -16.567 13.433 -30 30 -30 16.567 0 30 13.433 30 30" style="fill:#ebebeb;opacity:1;fill-opacity:1;fill-rule:evenodd"/>
 <path d="m 31.949 11.148 c -1.762 0.027 -3.176 1.488 -3.148 3.25 l 0 17.602 c 0 0.75 0.262 1.477 0.75 2.051 l 8 9.598 c 0.711 0.965 1.887 1.438 3.063 1.266 c 1.176 -0.188 2.148 -1 2.535 -2.125 c 0.391 -1.125 0.113 -2.375 -0.699 -3.238 l -7.25 -8.699 l 0 -16.453 c 0.012 -0.859 -0.324 -1.699 -0.938 -2.313 c -0.613 -0.609 -1.449 -0.949 -2.313 -0.938 Z" style="fill:#aaa;opacity:1;fill-opacity:1"/>
 <path d="m 32 0 c -17.637 0 -32 14.363 -32 32 c 0 17.637 14.363 32 32 32 c 17.637 0 32 -14.363 32 -32 c 0 -17.637 -14.363 -32 -32 -32 m 0 6.398 c 14.176 0 25.602 11.426 25.602 25.602 c 0 14.176 -11.426 25.602 -25.602 25.602 c -14.176 0 -25.602 -11.426 -25.602 -25.602 c 0 -14.176 11.426 -25.602 25.602 -25.602 Z" style="fill:#aaa;opacity:1"/>
 <path d="m 30 49 c -0.002 8.284 -6.716 14.998 -15 14.998 -8.284 0 -14.998 -6.714 -15 -14.998 -0.002 -8.286 6.714 -15 15 -15 c 8.286 0 15 6.716 15 15 z" style="fill:#dc322f;fill-rule:evenodd"/>
 <path d="m 7.01 41 0 2.668 c -0.059 0.746 0.193 1.51 0.754 2.027 l 3.418 3.363 -3.418 3.361 c -0.5 0.502 -0.754 1.207 -0.754 1.914 l 0 2.666 2.666 0 c 0.705 0 1.412 -0.252 1.912 -0.754 l 3.418 -3.42 3.418 3.42 c 0.502 0.502 1.207 0.754 1.912 0.754 l 2.666 0 0 -2.666 c 0 -0.707 -0.252 -1.412 -0.754 -1.914 l -3.359 -3.361 3.418 -3.363 c 0.574 -0.529 0.695 -1.266 0.695 -2.027 l 0 -2.668 -2.666 0 c -0.641 0.02 -1.146 0.256 -1.853 0.871 l -3.476 3.361 -3.418 -3.361 c -0.473 -0.49 -1.119 -0.84 -1.797 -0.871 -0.027 0 -0.088 0 -0.115 0 z" style="fill:#fff;fill-opacity:0.902;fill-rule:evenodd"/>
</svg>
